X: 470
M: C|
L: 1/8
K: D
V: 1
|:\
|:\
a2 A4 a2 | g2 A4 g2 | f2gf e2d2 | Tc2Bc A4 |\
d2 D4 B2 | A2 D4 f2 | {f}e2d2 e2c2 | d4 D4 :|
V: 2 clef=bass middle=d
|:\
d4 d4 | d4 d4 | d4 d4 | A4 agfe |\
d4 d4 | d4 d4 | e4 E4 | A4 a4 :|
|:\
a4 A4 | a4 A4 | d4 g4 | a6 g2 |\
f4 g4 | f4 d4 | a4 A4 | d4 D4 :|

